X:1
T:Emmaus, SM
T:Joseph Barnby, 1862
T:Emmaus, SM
T:Public Domain
C:Joseph Barnby, 1862
Z:Public Domain
%%score 1 ( 2 3 )
L:1/8
M:4/4
K:F
V:1 treble 
V:2 bass 
V:3 bass 
V:1
 [CF]2 | [CF]2 [EG]2 [FA]2 [FB]2 | [Ec]6 [Fc]2 | [G_e]2 [Fd]2 [Fc]2 [=Ec]2 | [Fc]6 [Fd]2 | %5
 [FB]2 [Ec]2 [FA]2 [DG]2 | [^CA]2 [EG]2 [DF]2 [DA]2 | [CE]2 [CF]2 [CF]2 [CE]2 | [CF]6 |] %9
V:2
 [F,A,]2 | [F,A,]2 [C,C]2 [F,C]2 [D,B,]2 | [C,G,]6 [F,A,]2 | [_E,B,]2 (B,A,) [C,G,]2 [C,G,]2 | %4
 [F,A,]6 [B,,B,]2 | [D,B,]2 [C,G,]2 F,2 (G,F,) | [A,,E,]2 [^C,A,]2 [D,A,]2 [B,,B,]2 | %7
 [C,B,]2 [C,A,]2 [C,G,]2 [C,G,]2 | [F,A,]6 |] %9
V:3
 x2 | x8 | x8 | x2 B,,2 x4 | x8 | x4 F,2 G,,2 | x8 | x8 | x6 |] %9

